file/liebherr.svg

<svg clip-rule="evenodd" fill-rule="evenodd" stroke-linejoin="round" stroke-miterlimit="1.41421" viewBox="0 0 560 400" xmlns="http://www.w3.org/2000/svg"><path d="m4024.56 647.31 477.85.063c149.77 0 206.32-101.214 206.32-188.474 0-148.643-133.99-175.305-133.99-175.305l173.6-277.104-349.4.005-75.04 184.095.1-184.095-635.35.005-75.04 184.095.1-184.095-299.44.006v640.819l477.74.063c149.78 0 206.42-101.213 206.42-188.474 0-148.643-134.09-175.305-134.09-175.305l160.22-255.74v619.456zm-2385.37-121.97v-121.364h43.17c22.89 0 39.92 13.942 47.87 30.299 6.27 13.002 10.87 38.42-.63 62.114-13.8 28.742-40.66 28.669-46.93 28.972zm-304.56 122.033s435.52-.126 509.94-.052c142.14.156 175.69-106.607 175.9-169.285.41-112.585-78.39-140.219-78.39-140.219s84.87-32.013 84.87-152.029c0-186.959-171.31-179.266-197.85-179.266l-494.47.002v640.851zm1949.96-640.924v147.19h-138.69v116.817h137.23v127.468h-137.23v123.423h138.69v125.953h-455.59v-640.851l455.59.002zm-812.61 0h316.57v640.851h-316.57v-242.77h-102.64v242.77h-323.9v-640.851l323.9.002v269.327h102.64v-269.327.002zm-1165.78 0v147.19h-138.69v116.817h137.23v127.468h-137.23v123.423h138.69v125.953h-455.562v-640.851l455.562.002zm-807.457 640.851h311.332v-640.851l-311.332.002v640.851zm-30.916-640.851v176.904h-138.651v463.947h-321.116l.001-640.851 459.767.002zm3140.293 518.922v-151.83h37.94c41.07 0 55.7 19.492 64.69 39.914 7.11 16.253 11.92 45.611 0 75.68-6.48 16.305-23.62 36.226-64.69 36.226zm710.4 0v-151.83h37.93c41.08 0 55.71 19.492 64.7 39.914 7.11 16.253 11.91 45.611 0 75.68-6.48 16.305-23.62 36.226-64.8 36.226zm-2679.48-258.918v-131.22h43.68c22.89 0 46.2 15.082 54.77 32.756 6.79 14.057 11.5 41.44-.63 67.172-15.88 33.916-50.79 30.906-54.24 31.303z" transform="matrix(.105479 0 0 -.105479 29.1498 234.483)"/></svg>

<?xml version="1.0" encoding="UTF-8" standalone="no"?>
<!DOCTYPE svg PUBLIC "-//W3C//DTD SVG 1.1//EN" "http://www.w3.org/Graphics/SVG/1.1/DTD/svg11.dtd">
<svg width="100%" height="100%" viewBox="0 0 560 400" version="1.1" xmlns="http://www.w3.org/2000/svg" xmlns:xlink="http://www.w3.org/1999/xlink" xml:space="preserve" xmlns:serif="http://www.serif.com/" style="fill-rule:evenodd;clip-rule:evenodd;stroke-linejoin:round;stroke-miterlimit:1.41421;">
    <g id="Liebherr" transform="matrix(0.105479,-1.7308e-33,1.7308e-33,-0.105479,29.1498,234.483)">
        <path d="M4024.56,647.31L4502.41,647.373C4652.18,647.373 4708.73,546.159 4708.73,458.899C4708.73,310.256 4574.74,283.594 4574.74,283.594L4748.34,6.49L4398.94,6.495L4323.9,190.59L4324,6.495L3688.65,6.5L3613.61,190.595L3613.71,6.5L3314.27,6.506L3314.27,647.325L3792.01,647.388C3941.79,647.388 3998.43,546.175 3998.43,458.914C3998.43,310.271 3864.34,283.609 3864.34,283.609L4024.56,27.869L4024.56,647.325L4024.56,647.31ZM1639.19,525.34L1639.19,403.976L1682.36,403.976C1705.25,403.976 1722.28,417.918 1730.23,434.275C1736.5,447.277 1741.1,472.695 1729.6,496.389C1715.8,525.131 1688.94,525.058 1682.67,525.361L1639.19,525.34ZM1334.63,647.373C1334.63,647.373 1770.15,647.247 1844.57,647.321C1986.71,647.477 2020.26,540.714 2020.47,478.036C2020.88,365.451 1942.08,337.817 1942.08,337.817C1942.08,337.817 2026.95,305.804 2026.95,185.788C2026.95,-1.171 1855.64,6.522 1829.1,6.522L1334.63,6.524L1334.63,647.375L1334.63,647.373ZM3284.59,6.449L3284.59,153.639L3145.9,153.639L3145.9,270.456L3283.13,270.456L3283.13,397.924L3145.9,397.924L3145.9,521.347L3284.59,521.347L3284.59,647.3L2829,647.3L2829,6.449L3284.59,6.451L3284.59,6.449ZM2471.98,6.449L2788.55,6.449L2788.55,647.3L2471.98,647.3L2471.98,404.53L2369.34,404.53L2369.34,647.3L2045.44,647.3L2045.44,6.449L2369.34,6.451L2369.34,275.778L2471.98,275.778L2471.98,6.451L2471.98,6.453L2471.98,6.449ZM1306.2,6.449L1306.2,153.639L1167.51,153.639L1167.51,270.456L1304.74,270.456L1304.74,397.924L1167.51,397.924L1167.51,521.347L1306.2,521.347L1306.2,647.3L850.638,647.3L850.638,6.449L1306.2,6.451L1306.2,6.449ZM498.743,647.3L810.075,647.3L810.075,6.449L498.743,6.451L498.743,647.302L498.743,647.3ZM467.827,6.449L467.827,183.353L329.176,183.353L329.176,647.3L8.06,647.3L8.061,6.449L467.828,6.451L467.827,6.449ZM3608.12,525.371L3608.12,373.541L3646.06,373.541C3687.13,373.541 3701.76,393.033 3710.75,413.455C3717.86,429.708 3722.67,459.066 3710.75,489.135C3704.27,505.44 3687.13,525.361 3646.06,525.361L3608.12,525.371ZM4318.52,525.371L4318.52,373.541L4356.45,373.541C4397.53,373.541 4412.16,393.033 4421.15,413.455C4428.26,429.708 4433.06,459.066 4421.15,489.135C4414.67,505.44 4397.53,525.361 4356.35,525.361L4318.52,525.371ZM1639.04,266.453L1639.04,135.233L1682.72,135.233C1705.61,135.233 1728.92,150.315 1737.49,167.989C1744.28,182.046 1748.99,209.429 1736.86,235.161C1720.98,269.077 1686.07,266.067 1682.62,266.464L1639.04,266.453"/>
    </g>
</svg>
